X: 2
T: Colonel McBain
R: reel
M: 4/4
L: 1/8
K: Gmaj
|:G3F GBdB|ABAG FGAc|Beed (3eee ef|fede de (3eee|
efed BcdB|ABAG FGAc|Be (3eee BedB|AGFG E2 EF:|
|:GEBE GEBE|FDAD FDAD|1GEBE GEBE|
AFDF E2 EF:|2G2 GF GBdB|AFDF E2 EF||


Tune 102	Setting 102

